src/general/components/img/brandswhite.svg

<svg height="50" viewBox="0 0 50 50" width="50" xmlns="http://www.w3.org/2000/svg"><g fill="#fff"><path d="m23.536 0-19.018.464c-2.251.071-3.983 1.858-4.054 4.054l-.464 19.018c0 1.125.394 2.268 1.196 3.064l20.679 20.669c1.732 1.747 4.054 2.731 6.502 2.731 2.479 0 4.817-.929 6.533-2.731l12.358-12.304c1.748-1.716 2.732-4.054 2.732-6.501 0-2.464-.929-4.787-2.731-6.518l-20.669-20.75c-.797-.802-1.938-1.196-3.064-1.196zm22.465 28.464c0 1.378-.534 2.731-1.52 3.715l-12.302 12.302c-.983.985-2.337 1.52-3.715 1.52-1.409 0-2.732-.534-3.731-1.52l-20.679-20.677c-.07-.071-.07-.071-.07-.126l.464-19.018c0-.071.07-.212.212-.212l19.017-.464c.055 0 .055 0 .126.07l20.678 20.679c.986.999 1.52 2.322 1.52 3.731z"/><path d="m11.619 11.596c-2.785 2.787-2.785 7.346 0 10.133 1.349 1.366 3.228 2.077 5.053 2.077 1.81 0 3.619-.71 5.054-2.077 2.784-2.787 2.784-7.346 0-10.133-2.785-2.803-7.324-2.732-10.107 0zm7.377 7.401c-1.224 1.242-3.298 1.242-4.593 0-1.24-1.225-1.24-3.302 0-4.614.639-.64 1.49-.976 2.27-.976.834 0 1.685.336 2.269.976 1.294 1.242 1.294 3.318.054 4.614z"/></g></svg>

<?xml version="1.0" encoding="UTF-8"?>
<svg width="50px" height="50px" viewBox="0 0 50 50" version="1.1" xmlns="http://www.w3.org/2000/svg" xmlns:xlink="http://www.w3.org/1999/xlink">
    <!-- Generator: Sketch 48.2 (47327) - http://www.bohemiancoding.com/sketch -->
    <title>Artboard 5</title>
    <desc>Created with Sketch.</desc>
    <defs></defs>
    <g id="Symbols" stroke="none" stroke-width="1" fill="none" fill-rule="evenodd">
        <g id="Artboard-5" fill="#FFFFFF" fill-rule="nonzero">
            <path d="M23.536,0 L4.518,0.464 C2.267,0.535 0.535,2.322 0.464,4.518 L0,23.536 C0,24.661 0.394,25.804 1.196,26.6 L21.875,47.269 C23.607,49.016 25.929,50 28.377,50 C30.856,50 33.194,49.071 34.91,47.269 L47.268,34.965 C49.016,33.249 50,30.911 50,28.464 C50,26 49.071,23.677 47.269,21.946 L26.6,1.196 C25.803,0.394 24.662,0 23.536,0 Z M46.001,28.464 C46.001,29.842 45.467,31.195 44.481,32.179 L32.179,44.481 C31.196,45.466 29.842,46.001 28.464,46.001 C27.055,46.001 25.732,45.467 24.733,44.481 L4.054,23.804 C3.984,23.733 3.984,23.733 3.984,23.678 L4.448,4.66 C4.448,4.589 4.518,4.448 4.66,4.448 L23.677,3.984 C23.732,3.984 23.732,3.984 23.803,4.054 L44.481,24.733 C45.467,25.732 46.001,27.055 46.001,28.464 Z" id="Shape"></path>
            <path d="M11.619,11.596 C8.834,14.383 8.834,18.942 11.619,21.729 C12.968,23.095 14.847,23.806 16.672,23.806 C18.482,23.806 20.291,23.096 21.726,21.729 C24.51,18.942 24.51,14.383 21.726,11.596 C18.941,8.793 14.402,8.864 11.619,11.596 Z M18.996,18.997 C17.772,20.239 15.698,20.239 14.403,18.997 C13.163,17.772 13.163,15.695 14.403,14.383 C15.042,13.743 15.893,13.407 16.673,13.407 C17.507,13.407 18.358,13.743 18.942,14.383 C20.236,15.625 20.236,17.701 18.996,18.997 Z" id="Shape_1_"></path>
        </g>
    </g>
</svg>
